!!!!SEGMENT: pl-kk--kk-i-389--001-008_kottritsch-franciszek--missa-no-1-dona.krn
!!!cenid: 17xx:2459
!!!COM: Kottritsch, Franciszek
!!!COM-rismID: pe30040598
!!!CDT: ~1727-1787
!!!CNT:
!!!OPR: [Missa] No. 1.
!!!OTL: Dona
!!!OMV: 008
!!!PDT:
!!!AGN: Sacred; Mass
!!!YEC: Copyright 2022 Narodowy Instytut Fryderyka Chopina (https://polishscores.org)
!!!YEM: License CC-BY-4.0 (https://creativecommons.org/licenses/by/4.0)
!!!SMS-siglum: PL-Kk
!!!SMS-shelfmark: Kk.I.389
!!!SMS-variant:
!!!SMS-altvar:
!!!SMS-shelfwork: 001-008 M
!!!NIFC-rismSourceID: 1001146182
!!!NIFC-rismChildID: 1001146200
!!!NIFC-islandoraID: pl-kk:6976
!!!URL-pdf-islandora: https://repozytorium.nifc.pl/islandora/object/pl-kk%3A6976/datastream/PDF/view
!!!URL-scan: https://polish.musicsources.pl/pl/lokalizacje/galeria/rekopisy/5999/1 @EN{Scan on Polish Music Sources Website} @PL{Skany w portalu Dziedzictwo Muzyki Polskiej w otwartym dostępie}
!!!IIIF:
!!!ONB-nifc: UWAGA: S – skan 1-3, A – 20-22, T – 39-41 , B – 58-60. Części Mszy: Rorate, Kyrie, Gloria, Graduale, Sanctus, Benedictus, Agnus, Dona.
!!!AIN: 1 alto 1 bass 1 soprn 1 tenor
!!!key: C
**kern	**text	**kern	**text	**kern	**text	**kern	**text
*part4	*part4	*part3	*part3	*part2	*part2	*part1	*part1
*staff4	*staff4	*staff3	*staff3	*staff2	*staff2	*staff1	*staff1
*I"Basso.	*	*I"Tenore.	*	*I"Alto.	*	*I"Soprano.	*
*I'[B]	*	*I'[T]	*	*I'[A]	*	*I'[S]	*
*ICvox	*	*ICvox	*	*ICvox	*	*ICvox	*
*Ibass	*	*Itenor	*	*Ialto	*	*Isoprn	*
*clefF4	*	*clefC4	*	*clefC3	*	*clefC1	*
*k[]	*	*k[]	*	*k[]	*	*k[]	*
*C:	*	*C:	*	*C:	*	*C:	*
*M3/2	*	*M3/2	*	*M3/2	*	*M3/2	*
=1-	=1-	=1-	=1-	=1-	=1-	=1-	=1-
*	*	*	*	*2\right	*	*2\right	*
!!LO:TX:t=P:problem: all\right	!	!	!	!	!	!	!
4C\	Do-	2.G/	Do-	2.e\	Do-	2.cc\	Do-
4E\	.	.	.	.	.	.	.
4G\	.	.	.	.	.	.	.
4E\	-na	4G/	-na	4e\	-na	4cc\	-na
4C\	no-	4G/	no-	4e\	no-	4cc\	no-
!LO:TX:t=P:problem:kreska pseudotaktowa	!	!LO:TX:t=P:problem:kreska pseudotaktowa	!	!LO:TX:t=P:problem:kreska pseudotaktowa	!	!LO:TX:t=P:problem:kreska pseudotaktowa	!
4E\	-bis	4G/	-bis	4e\	-bis	4cc\	-bis
=2-	=2-	=2-	=2-	=2-	=2-	=2-	=2-
*2\right	*	*	*	*	*	*	*
2G\	pa-	2G/	pa-	4e\	pa-	4cc\	pa-
.	.	.	.	4d\	.	4b\	.
!LO:TX:t=P:problem:kreska pseudotaktowa	!	!LO:TX:t=P:problem:kreska pseudotaktowa	!	!LO:TX:t=P:problem:kreska pseudotaktowa	!	!LO:TX:t=P:problem:kreska pseudotaktowa	!
1GG	-cem	1G	-cem	1d	-cem	1b	-cem
=3-	=3-	=3-	=3-	=3-	=3-	=3-	=3-
*	*	*2\right	*	*	*	*	*
4G\	Do-	2.B\	do-	2.f\	Do-	2.dd\	do-
4D\	.	.	.	.	.	.	.
4BB\	.	.	.	.	.	.	.
4D\	-na	4B\	-na	4f\	-na	4dd\	-na
4G\	no-	4B\	no-	4f\	no-	4dd\	no-
!LO:TX:t=P:problem:kreska pseudotaktowa	!	!LO:TX:t=P:problem:kreska pseudotaktowa	!	!LO:TX:t=P:problem:kreska pseudotaktowa	!	!LO:TX:t=P:problem:kreska pseudotaktowa	!
4F\	-bis	4B\	-bis	4f\	-bis	4dd\	-bis
=4-	=4-	=4-	=4-	=4-	=4-	=4-	=4-
4E\	pa-	2G/	pa-	4f\	pa-	4dd\	pa-
4D\	.	.	.	4e\	.	4cc\	.
!LO:TX:t=P:problem:kreska pseudotaktowa	!	!LO:TX:t=P:problem:kreska pseudotaktowa	!	!LO:TX:t=P:problem:kreska pseudotaktowa	!	!LO:TX:t=P:problem:kreska pseudotaktowa	!
1C	-cem	1G	-cem	1e	-cem	1cc	-cem
!	!	!	!	!	!	!LO:LB:g=original	!
=5-	=5-	=5-	=5-	=5-	=5-	=5-	=5-
4C/	do-	4c\	do-	4g\	do-	4ee\	do-
4C/	-na	4c\	-na	4e\	.	4cc\	.
!	!	!	!	!LO:LB:g=original	!	!	!
4F\	pa-	4c\	no-	4a\	.	4ff\	.
4E\	.	4c\	-bis	4g\	-na	4ee\	-na
4F\	.	4B\	pa-	4f\	no-	4dd\	no-
!LO:TX:t=P:problem:kreska pseudotaktowa	!	!LO:TX:t=P:problem:kreska pseudotaktowa	!	!LO:TX:t=P:problem:kreska pseudotaktowa	!	!LO:TX:t=P:problem:kreska pseudotaktowa	!
4F#X\	.	4c\	.	4e\	-bis	4cc\	-bis
!LO:LB:g=original	!	!LO:LB:g=original	!	!	!	!	!
=6-	=6-	=6-	=6-	=6-	=6-	=6-	=6-
1G	-cem,	2G/	-cem	2e\	pa-	1b	pacem
.	.	2r	.	2d\	-cem	.	.
!LO:TX:t=P:problem:kreska pseudotaktowa	!	!LO:TX:t=P:problem:kreska pseudotaktowa	!	!LO:TX:t=P:problem:kreska pseudotaktowa	!	!LO:TX:t=P:problem:kreska pseudotaktowa	!
2r	.	2r	.	2r	.	2r	.
=7-	=7-	=7-	=7-	=7-	=7-	=7-	=7-
2.G\	do-	2.B\	do-	2.g\	Do-	2.dd\	do-
4G\	-na	4B\	-na	4g\	-na	4dd\	-na
4G\	no-	4B\	no-	4g\	no-	4dd\	no-
!LO:TX:t=P:problem:kreska pseudotaktowa	!	!LO:TX:t=P:problem:kreska pseudotaktowa	!	!LO:TX:t=P:problem:kreska pseudotaktowa	!	!LO:TX:t=P:problem:kreska pseudotaktowa	!
4G\	-bis	4B\	-bis	4g\	-bis	4dd\	-bis
=8-	=8-	=8-	=8-	=8-	=8-	=8-	=8-
4G\	pa-	4B\	pa-	4g\	pa-	2dd\	pa-
4A\	.	4c\	.	4f#X\	.	.	.
!	!	!LO:TX:t=P:problem:kreska pseudotaktowa	!	!LO:TX:t=P:problem:kreska pseudotaktowa	!	!LO:TX:t=P:problem:kreska pseudotaktowa	!
2.A\	-cem	1c	-cem	1f#	-cem	1dd	-cem
!LO:TX:t=P:problem:kreska pseudotaktowa	!	!	!	!	!	!	!
4r	.	.	.	.	.	.	.
=9-	=9-	=9-	=9-	=9-	=9-	=9-	=9-
4B\	do-	4G/	do-	2.fn\	do-	2.dd\	do-
4G\	.	4B/	.	.	.	.	.
4B\	.	4G/	.	.	.	.	.
4d\	-na	4B/	-na	4f\	-na	4dd\	-na
4B\	no-	4G/	no-	4f\	no-	4dd\	no-
!LO:TX:t=P:problem:kreska pseudotaktowa	!	!LO:TX:t=P:problem:kreska pseudotaktowa	!	!LO:TX:t=P:problem:kreska pseudotaktowa	!	!LO:TX:t=P:problem:kreska pseudotaktowa	!
4G\	-bis	4B/	-bis	4f\	-bis	4dd\	-bis
!	!	!	!	!	!	!LO:LB:g=original	!
=10-	=10-	=10-	=10-	=10-	=10-	=10-	=10-
2c\	pa-	2G/	pa-	4f\	pa-	4dd\	pa-
.	.	.	.	4e\	.	4cc\	.
!	!	!	!	!LO:TX:t=P:problem:kreska pseudotaktowa	!	!LO:TX:t=P:problem:kreska pseudotaktowa	!
2G\	.	2G/	-cem	1e	-cem	1cc	-cem
!LO:TX:t=P:problem:kreska pseudotaktowa	!	!LO:TX:t=P:problem:kreska pseudotaktowa	!	!	!	!	!
2C/	-cem	2r	.	.	.	.	.
!	!	!	!	!LO:LB:g=original	!	!	!
=11-	=11-	=11-	=11-	=11-	=11-	=11-	=11-
2.G\	do-	2.B\	do-	2.f\	do-	2.dd\	do-
4G\	-na	4B\	-na	4f\	-na	4dd\	-na
4c\	no-	4G/	no-	4e\	no-	4cc\	no-
!LO:TX:t=P:problem:kreska pseudotaktowa	!	!LO:TX:t=P:problem:kreska pseudotaktowa	!	!LO:TX:t=P:problem:kreska pseudotaktowa	!	!LO:TX:t=P:problem:kreska pseudotaktowa	!
4c\	-bis	4G/	-bis	4e\	-bis	4cc\	-bis
!	!	!LO:LB:g=original	!	!	!	!	!
=12-	=12-	=12-	=12-	=12-	=12-	=12-	=12-
!LO:TX:t=P:problem:kreska pseudotaktowa	!	!	!	!	!	!	!
1.G	do-	2d\	do-	2d\	do-	2b\	do-
.	.	2c\	.	2e\	.	2cc\	.
!	!	!LO:TX:t=P:problem:kreska pseudotaktowa	!	!LO:TX:t=P:problem:kreska pseudotaktowa	!	!LO:TX:t=P:problem:kreska pseudotaktowa	!
.	.	2B\	-na	2f\	-na	2dd\	-na
=13-	=13-	=13-	=13-	=13-	=13-	=13-	=13-
2E\	.	2G/	no-	2e\	no-	2cc\	no-
2D\	.	2B\	.	2f\	.	2dd\	.
!LO:TX:t=P:problem:kreska pseudotaktowa	!	!LO:TX:t=P:problem:kreska pseudotaktowa	!	!LO:TX:t=P:problem:kreska pseudotaktowa	!	!LO:TX:t=P:problem:kreska pseudotaktowa	!
2C/	-na	2c\	-bis	2g\	-bis	2ee\	-bis
=14-	=14-	=14-	=14-	=14-	=14-	=14-	=14-
2Fny\	pa-	2d\	pa-	4a\	pa-	4ff\	pa-
.	.	.	.	4f\	.	4dd\	.
!	!	!LO:TX:t=P:problem:kreska pseudotaktowa	!	!	!	!	!
2G\	.	1G	.	2f\	.	2cc\	.
!LO:TX:t=P:problem:kreska pseudotaktowa	!	!	!	!LO:TX:t=P:problem:kreska pseudotaktowa	!	!LO:TX:t=P:problem:kreska pseudotaktowa	!
2GG/	.	.	.	2e\	.	2b\	.
=15-	=15-	=15-	=15-	=15-	=15-	=15-	=15-
1C	-cem	1G	-cem	1e	-cem	1cc	-cem
!LO:TX:t=P:problem:kreska pseudotaktowa	!	!LO:TX:t=P:problem:kreska pseudotaktowa	!	!LO:TX:t=P:problem:kreska pseudotaktowa	!	!LO:TX:t=P:problem:kreska pseudotaktowa	!
2r	.	2r	.	2r	.	2r	.
!	!	!	!	!	!	!LO:LB:g=original	!
=16-	=16-	=16-	=16-	=16-	=16-	=16-	=16-
2.G\	do-	2.B\	do-	2.g\	do-	2.dd\	do-
4G\	-na	4B\	-na	4g\	-na	4dd\	-na
!	!	!	!	!LO:LB:g=original	!	!	!
4G\	no-	4B\	no-	4g\	no-	4dd\	no-
!LO:TX:t=P:problem:kreska pseudotaktowa	!	!LO:TX:t=P:problem:kreska pseudotaktowa	!	!LO:TX:t=P:problem:kreska pseudotaktowa	!	!LO:TX:t=P:problem:kreska pseudotaktowa	!
4G\	-bis	4B\	-bis	4g\	-bis	4dd\	-bis
=17-	=17-	=17-	=17-	=17-	=17-	=17-	=17-
4G\	pa-	4B\	pa-	4g\	pa-	2dd\	pa-
4A\	.	4c\	.	4f#X\	.	.	.
!LO:TX:t=P:problem:kreska pseudotaktowa	!	!LO:TX:t=P:problem:kreska pseudotaktowa	!	!LO:TX:t=P:problem:kreska pseudotaktowa	!	!LO:TX:t=P:problem:kreska pseudotaktowa	!
1A	-cem	1c	-cem	1f#	-cem	1dd	-cem
=18-	=18-	=18-	=18-	=18-	=18-	=18-	=18-
4B\	do-	4G\	do-	2.fn\	do-	2.dd\	do-
4G\	.	4B\	.	.	.	.	.
4B\	.	4G\	.	.	.	.	.
4d\	-na	4B\	-na	4f\	-na	4dd\	-na
4B\	no-	4G\	no-	4f\	no-	4dd\	no-
!LO:TX:t=P:problem:kreska pseudotaktowa	!	!LO:TX:t=P:problem:kreska pseudotaktowa	!	!LO:TX:t=P:problem:kreska pseudotaktowa	!	!LO:TX:t=P:problem:kreska pseudotaktowa	!
4G\	-bis	4B\	-bis	4f\	-bis	4dd\	-bis
!LO:LB:g=original	!	!LO:LB:g=original	!	!	!	!	!
=19-	=19-	=19-	=19-	=19-	=19-	=19-	=19-
2c\	pa-	1G	pa-	4f\	pa-	4dd\	pa-
.	.	.	.	4e\	.	4cc\	.
!	!	!	!	!LO:TX:t=P:problem:kreska pseudotaktowa	!	!	!
2G\	.	.	.	1e	-cem	2.cc\	-cem
!LO:TX:t=P:problem:kreska pseudotaktowa	!	!LO:TX:t=P:problem:kreska pseudotaktowa	!	!	!	!	!
2C/	-cem	2G/	-cem	.	.	.	.
!	!	!	!	!	!	!LO:TX:t=P:problem:kreska pseudotaktowa	!
.	.	.	.	.	.	4r	.
=20-	=20-	=20-	=20-	=20-	=20-	=20-	=20-
2.G\	do-	2.B\	do-	2.f\	do-	2.dd\	do-
4G\	-na	4B\	-na	4f\	-na	4dd\	-na
4c\	no-	4G/	no-	4e\	no-	4cc\	no-
!LO:TX:t=P:problem:kreska pseudotaktowa	!	!LO:TX:t=P:problem:kreska pseudotaktowa	!	!LO:TX:t=P:problem:kreska pseudotaktowa	!	!LO:TX:t=P:problem:kreska pseudotaktowa	!
4c\	-bis	4G/	-bis	4e\	-bis	4cc\	-bis
!	!	!	!	!	!	!LO:LB:g=original	!
=21-	=21-	=21-	=21-	=21-	=21-	=21-	=21-
1G	pa-	2d\	pa-	2d\	do-	2b\	do-
!	!	!	!	!LO:LB:g=original	!	!	!
.	.	2c\	.	2e\	.	2cc\	.
!LO:TX:t=P:problem:kreska pseudotaktowa	!	!LO:TX:t=P:problem:kreska pseudotaktowa	!	!LO:TX:t=P:problem:kreska pseudotaktowa	!	!LO:TX:t=P:problem:kreska pseudotaktowa	!
2G\	-cem	2B\	-cem	2f\	-na	2dd\	-na
=22-	=22-	=22-	=22-	=22-	=22-	=22-	=22-
2E\	do-	2G/	do-	2e\	no-	2cc\	no-
2D\	.	2B\	.	2f\	.	2dd\	.
!LO:TX:t=P:problem:kreska pseudotaktowa	!	!LO:TX:t=P:problem:kreska pseudotaktowa	!	!LO:TX:t=P:problem:kreska pseudotaktowa	!	!LO:TX:t=P:problem:kreska pseudotaktowa	!
2C/	-na	2c\	-na	2g\	-bis	2ee\	-bis
=23-	=23-	=23-	=23-	=23-	=23-	=23-	=23-
2F\	pa-	2d\	pa-	4a\	pa-	4ff\	pa-
.	.	.	.	4f\	.	4dd\	.
!	!	!LO:TX:t=P:problem:kreska pseudotaktowa	!	!	!	!	!
2G\	.	1G	-cem,	2e\	.	2cc\	.
!LO:TX:t=P:problem:kreska pseudotaktowa	!	!	!	!LO:TX:t=P:problem:kreska pseudotaktowa	!	!LO:TX:t=P:problem:kreska pseudotaktowa	!
2GG/	.	.	.	2d\	.	2b\	.
=24-	=24-	=24-	=24-	=24-	=24-	=24-	=24-
1C	-cem	2G/	do	2e\	-cem	2cc\	-cem
.	.	2G/	no-	2e\	do-	2cc\	do-
!LO:TX:t=P:problem:kreska pseudotaktowa	!	!LO:TX:t=P:problem:kreska pseudotaktowa	!	!LO:TX:t=P:problem:kreska pseudotaktowa	!	!LO:TX:t=P:problem:kreska pseudotaktowa	!
2C/	do	2G/	-bis	2e\	-na	2cc\	-na
=25-	=25-	=25-	=25-	=25-	=25-	=25-	=25-
!LO:TX:t=P:problem:kreska pseudotaktowa	!	!LO:TX:t=P:problem:kreska pseudotaktowa	!	!LO:TX:t=P:problem:kreska pseudotaktowa	!	!LO:TX:t=P:problem:kreska pseudotaktowa	!
1.C	pa-	1.A	pa-	1.f	pa-	1.cc	pa-
=26-	=26-	=26-	=26-	=26-	=26-	=26-	=26-
1.C	-cem.	1.G	-cem.	1.e	-cem.	1.cc	-cem.
==	==	==	==	==	==	==	==
*-	*-	*-	*-	*-	*-	*-	*-
!!!system-decoration: [(s1,s2,s3,s4)]
!!!ENC: Berenika Jozajtis
!!!END: 2023-11-05
!!!EED: Jan Barakat
!!!EEV: 2023-11-26
